X: 1
T: Alister McAlister
M: 4/4
L: 1/8
R: strathspey
K: Bmin
d/B3/2B3/2A/ F/B3/2B3/2c/ |d/B3/2B3/2c/ f2 f3/2e/ |d/B3/2B3/2A/ F/B3/2B3/2d/ |c/A3/2A3/2c/ e2 -e :|
c |d3/2e/f3/2g/ a3/2b/a3/2f/ |d3/2e/f3/2g/ a2 a3/2f/ |d3/2e/f3/2g/ a3/2b/a3/2f/ |c/A3/2A3/2c/ e2 e3/2c/ |
d3/2e/f3/2g/ a3/2b/a3/2f/ |d3/2e/f3/2g/ a2 a3/2b/ |=c'3/2a/b3/2g/ a3/2f/g3/2e/ |c/A3/2A3/2c/ e2 -e ||
